img/logos/joomla.svg

<?xml version="1.0" encoding="UTF-8" standalone="no"?>
<svg width="256px" height="258px" viewBox="0 0 256 258" version="1.1" xmlns="http://www.w3.org/2000/svg" xmlns:xlink="http://www.w3.org/1999/xlink" preserveAspectRatio="xMinYMin meet">
	<g>
		<path d="M255.6673,35.5610895 C255.6673,16.9537743 240.583222,1.8696965 221.975907,1.8696965 C204.986272,1.8696965 190.941136,14.4475642 188.627175,30.7986926 C188.411019,30.6841401 188.28551,30.619393 188.28551,30.619393 C160.733136,18.1919377 137.523798,40.2029572 137.523798,40.2029572 L76.132607,101.894973 L100.389852,125.254724 L149.802833,76.7093541 C172.8767,53.6344903 185.440623,69.2524825 185.440623,69.2524825 C202.81077,83.9261634 186.039284,101.296311 186.039284,101.296311 L210.896187,125.254724 C231.193899,103.332358 232.3713,84.1990973 226.201401,68.9785525 C242.812514,66.898677 255.6673,52.736 255.6673,35.5610895" fill="#F9AE41"></path>
		<path d="M226.514179,190.506833 C226.628732,190.291673 226.693479,190.166163 226.693479,190.166163 C239.12193,162.612794 217.109914,139.404451 217.109914,139.404451 L155.416903,78.0112685 L132.058148,102.26951 L180.603518,151.68249 C203.678381,174.757354 188.060389,187.321276 188.060389,187.321276 C173.386708,204.691424 156.01656,187.919938 156.01656,187.919938 L132.058148,212.775844 C153.979518,233.073556 173.113774,234.250957 188.333323,228.081058 C190.413198,244.693167 204.576872,257.547953 221.751782,257.547953 C240.359097,257.547953 255.442179,242.463875 255.442179,223.85656 C255.442179,206.866926 242.865307,192.82179 226.514179,190.506833" fill="#EE4035"></path>
		<path d="M155.941852,133.040311 L106.528872,181.584685 C83.4540078,204.660545 70.8900856,189.043549 70.8900856,189.043549 C53.5199377,174.368872 70.2914241,156.99972 70.2914241,156.99972 L45.4355175,133.041307 C25.1378054,154.962677 23.9604047,174.095938 30.1293074,189.316482 C13.5171984,191.396358 0.66340856,205.558039 0.66340856,222.733946 C0.66340856,241.341261 15.7474864,256.424342 34.3548016,256.424342 C51.3444358,256.425339 65.389572,243.848467 67.7035331,227.497339 C67.9196887,227.611891 68.0451984,227.675642 68.0451984,227.675642 C95.5985681,240.105089 118.806911,218.092078 118.806911,218.092078 L180.199097,156.399066 L155.941852,133.040311" fill="#4F91CD"></path>
		<path d="M75.7271907,106.612545 C52.6523268,83.5376809 68.2683268,70.9737588 68.2683268,70.9737588 C82.944,53.6036109 100.313152,70.3750973 100.313152,70.3750973 L124.271564,45.5201868 C102.350195,25.2224747 83.2169339,24.0450739 67.9973852,30.2139767 C65.9165136,13.6008716 51.7548327,0.747081712 34.57793,0.747081712 C15.9716109,0.747081712 0.888529183,15.8311595 0.887533074,34.4384747 C0.887533074,51.4291051 13.4644047,65.4742412 29.8155331,67.7882023 C29.7009805,68.004358 29.6372296,68.1298677 29.6372296,68.1298677 C17.206786,95.6822412 39.2197977,118.889588 39.2197977,118.889588 L100.913805,180.28277 L124.27256,156.025525 L75.7271907,106.612545" fill="#7AC043"></path>
	</g>
</svg>

<svg width="256" height="258" viewBox="0 0 256 258" xmlns="http://www.w3.org/2000/svg" preserveAspectRatio="xMinYMin meet"><path d="M255.667 35.56c0-18.606-15.084-33.69-33.69-33.69-16.99 0-31.036 12.578-33.35 28.93-.216-.116-.34-.18-.34-.18-27.554-12.428-50.763 9.583-50.763 9.583l-61.39 61.692 24.256 23.36 49.413-48.546c23.074-23.076 35.638-7.458 35.638-7.458 17.37 14.674.6 32.044.6 32.044l24.856 23.96c20.298-21.924 21.475-41.057 15.305-56.277 16.613-2.08 29.467-16.244 29.467-33.42" fill="#F9AE41"/><path d="M226.514 190.507c.115-.215.18-.34.18-.34 12.428-27.554-9.584-50.763-9.584-50.763L155.417 78.01l-23.36 24.26 48.547 49.412c23.074 23.075 7.456 35.64 7.456 35.64-14.673 17.37-32.043.598-32.043.598l-23.96 24.856c21.923 20.298 41.057 21.475 56.276 15.305 2.08 16.613 16.244 29.468 33.42 29.468 18.606 0 33.69-15.084 33.69-33.69 0-16.99-12.578-31.036-28.93-33.35" fill="#EE4035"/><path d="M155.942 133.04l-49.413 48.545c-23.076 23.076-35.64 7.46-35.64 7.46-17.37-14.676-.6-32.045-.6-32.045l-24.854-23.96c-20.298 21.923-21.476 41.056-15.307 56.276C13.516 191.396.662 205.558.662 222.734c0 18.607 15.084 33.69 33.692 33.69 16.99 0 31.035-12.576 33.35-28.927.215.115.34.18.34.18 27.554 12.428 50.762-9.585 50.762-9.585L180.2 156.4l-24.258-23.36" fill="#4F91CD"/><path d="M75.727 106.613c-23.075-23.075-7.46-35.64-7.46-35.64 14.677-17.37 32.046-.598 32.046-.598l23.96-24.855C102.35 25.222 83.216 24.045 67.996 30.214 65.917 13.6 51.755.747 34.577.747 15.973.747.89 15.83.888 34.437c0 16.992 12.577 31.037 28.93 33.35-.116.217-.18.343-.18.343-12.43 27.552 9.583 50.76 9.583 50.76l61.694 61.393 23.36-24.257-48.547-49.413" fill="#7AC043"/></svg>
